icons/coupon-fill.svg

<svg xmlns="http://www.w3.org/2000/svg" width="24" height="24" fill="none"><g clip-path="url(#a)"><g><path fill="#121212" d="M2 9.5V4C2 3.73478 2.10536 3.48043 2.29289 3.29289C2.48043 3.10536 2.73478 3 3 3H21C21.2652 3 21.5196 3.10536 21.7071 3.29289C21.8946 3.48043 22 3.73478 22 4V9.5C21.337 9.5 20.7011 9.76339 20.2322 10.2322C19.7634 10.7011 19.5 11.337 19.5 12C19.5 12.663 19.7634 13.2989 20.2322 13.7678C20.7011 14.2366 21.337 14.5 22 14.5V20C22 20.2652 21.8946 20.5196 21.7071 20.7071C21.5196 20.8946 21.2652 21 21 21H3C2.73478 21 2.48043 20.8946 2.29289 20.7071C2.10536 20.5196 2 20.2652 2 20V14.5C2.66304 14.5 3.29893 14.2366 3.76777 13.7678C4.23661 13.2989 4.5 12.663 4.5 12C4.5 11.337 4.23661 10.7011 3.76777 10.2322C3.29893 9.76339 2.66304 9.5 2 9.5ZM9 9V11H15V9H9ZM9 13V15H15V13H9Z"/></g></g><defs><clipPath id="a"><rect width="24" height="24" fill="white"/></clipPath></defs></svg>

<svg width="24" height="24" fill="none" xmlns="http://www.w3.org/2000/svg"><g clip-path="url(#a)"><path d="M2 9.5V4a1 1 0 0 1 1-1h18a1 1 0 0 1 1 1v5.5a2.5 2.5 0 0 0 0 5V20a1 1 0 0 1-1 1H3a1 1 0 0 1-1-1v-5.5a2.5 2.5 0 0 0 0-5ZM9 9v2h6V9H9Zm0 4v2h6v-2H9Z" /></g><defs><clipPath id="a"><path fill="#fff" d="M0 0h24v24H0z"/></clipPath></defs></svg>
